X: 1
T: the Successful Campaign
S: Roaring Jelly collection (R-29)
O: Walsh 1764
Z: unknown
M: C|
R: reel
K: G
|:\
"G"G2GB "D7"A2Ac | "G"BGBd "(Em)"g4 |\
1,3ed "C"edcB | "Am"cBAG "D7"FAFD :|\
2,4 "A"gfed "A7"efga | f2e2 "D"d2z2 :|
|:\
"D"d3f e2d2 | c2B2 c2A2 |\
"D7"c3e d2c2 | "G"B2A2 B2G2 |\
"G"G2GB "D7"A2Ac | "G"BGBd g4 "I"|\
gfed "C"efga | "D"B2A2 "G"G4 :|
